public/assets/github-icon-footer.svg

<svg width="28" height="29" viewBox="0 0 28 29" fill="none" xmlns="http://www.w3.org/2000/svg">
  <path
    d="M9.36532 23.1706C9.36532 23.2864 9.23548 23.379 9.07177 23.379C8.88548 23.3964 8.75564 23.3037 8.75564 23.1706C8.75564 23.0548 8.88548 22.9621 9.04919 22.9621C9.21855 22.9448 9.36532 23.0374 9.36532 23.1706ZM7.60968 22.91C7.57016 23.0258 7.68306 23.159 7.85242 23.1937C7.99919 23.2516 8.16855 23.1937 8.20242 23.0779C8.23629 22.9621 8.12903 22.829 7.95968 22.7768C7.8129 22.7363 7.64919 22.7942 7.60968 22.91ZM10.1048 22.8116C9.94113 22.8521 9.82823 22.9621 9.84516 23.0953C9.8621 23.2111 10.0089 23.2864 10.1782 23.2458C10.3419 23.2053 10.4548 23.0953 10.4379 22.9795C10.421 22.8695 10.2685 22.7942 10.1048 22.8116ZM13.8194 0.625C5.98952 0.625 0 6.72168 0 14.7522C0 21.1731 3.94032 26.6676 9.56855 28.6014C10.2911 28.7346 10.5452 28.2772 10.5452 27.9008C10.5452 27.5419 10.5282 25.5618 10.5282 24.3459C10.5282 24.3459 6.57661 25.2144 5.74677 22.6205C5.74677 22.6205 5.10323 20.9357 4.17742 20.5014C4.17742 20.5014 2.88468 19.5924 4.26774 19.6098C4.26774 19.6098 5.67339 19.7256 6.44677 21.1036C7.68306 23.3385 9.75484 22.6958 10.5621 22.3137C10.6919 21.3873 11.0589 20.7446 11.4653 20.3625C8.30968 20.0035 5.12581 19.5346 5.12581 13.9647C5.12581 12.3725 5.55484 11.5735 6.45806 10.5545C6.31129 10.1782 5.83145 8.62653 6.60484 6.62325C7.78468 6.24691 10.5 8.1865 10.5 8.1865C11.629 7.86228 12.8427 7.69437 14.0452 7.69437C15.2476 7.69437 16.4613 7.86228 17.5903 8.1865C17.5903 8.1865 20.3056 6.24113 21.4855 6.62325C22.2589 8.63232 21.779 10.1782 21.6323 10.5545C22.5355 11.5793 23.0887 12.3783 23.0887 13.9647C23.0887 19.5519 19.7637 19.9977 16.6081 20.3625C17.1274 20.8199 17.5677 21.6884 17.5677 23.049C17.5677 25.0001 17.5508 27.4145 17.5508 27.8893C17.5508 28.2656 17.8105 28.723 18.5274 28.5898C24.1726 26.6676 28 21.1731 28 14.7522C28 6.72168 21.6492 0.625 13.8194 0.625ZM5.4871 20.5941C5.41371 20.652 5.43064 20.7852 5.52661 20.8952C5.61694 20.9878 5.74677 21.0283 5.82016 20.9531C5.89355 20.8952 5.87661 20.762 5.78064 20.652C5.69032 20.5593 5.56048 20.5188 5.4871 20.5941ZM4.87742 20.1251C4.8379 20.2004 4.89435 20.293 5.00726 20.3509C5.09758 20.4088 5.21048 20.3914 5.25 20.3104C5.28952 20.2351 5.23306 20.1425 5.12016 20.0846C5.00726 20.0498 4.91694 20.0672 4.87742 20.1251ZM6.70645 22.1863C6.61613 22.2616 6.65 22.4353 6.77984 22.5453C6.90968 22.6784 7.07339 22.6958 7.14677 22.6032C7.22016 22.5279 7.18629 22.3542 7.07339 22.2442C6.94919 22.111 6.77984 22.0937 6.70645 22.1863ZM6.0629 21.3352C5.97258 21.3931 5.97258 21.5436 6.0629 21.6768C6.15323 21.8099 6.30564 21.8678 6.37903 21.8099C6.46935 21.7347 6.46935 21.5841 6.37903 21.451C6.3 21.3178 6.15323 21.2599 6.0629 21.3352Z"
    fill="currentColor" />
</svg>

<svg xmlns="http://www.w3.org/2000/svg" width="28" height="29" fill="none" viewBox="0 0 28 29"><path fill="currentColor" d="M9.365 23.17c0 .116-.13.209-.293.209-.187.017-.316-.075-.316-.208 0-.116.13-.209.293-.209.17-.017.316.075.316.209m-1.755-.26c-.04.116.073.249.242.284.147.058.317 0 .35-.116.034-.116-.073-.249-.242-.301-.147-.04-.31.017-.35.133m2.495-.098c-.164.04-.277.15-.26.283.017.116.164.191.333.15.164-.04.277-.15.26-.265-.017-.11-.17-.186-.333-.168M13.819.625C5.99.625 0 6.722 0 14.752c0 6.421 3.94 11.916 9.569 13.85.722.133.976-.325.976-.701 0-.36-.017-2.34-.017-3.555 0 0-3.951.868-4.781-1.726 0 0-.644-1.684-1.57-2.119 0 0-1.292-.909.09-.891 0 0 1.406.116 2.18 1.494 1.236 2.235 3.308 1.592 4.115 1.21.13-.927.497-1.57.903-1.951-3.155-.36-6.34-.828-6.34-6.398 0-1.592.43-2.392 1.333-3.41-.147-.377-.627-1.928.147-3.932 1.18-.376 3.895 1.564 3.895 1.564a13 13 0 0 1 3.545-.493c1.203 0 2.416.168 3.545.493 0 0 2.716-1.946 3.895-1.564.774 2.01.294 3.555.147 3.932.903 1.024 1.457 1.823 1.457 3.41 0 5.587-3.325 6.033-6.48 6.398.518.457.959 1.325.959 2.686 0 1.951-.017 4.366-.017 4.84 0 .377.26.834.976.7C24.173 26.669 28 21.174 28 14.753 28 6.722 21.65.625 13.82.625m-8.332 19.97c-.073.057-.056.19.04.3.09.093.22.133.293.058.074-.058.057-.191-.04-.301-.09-.093-.22-.133-.293-.058m-.61-.47c-.04.075.017.168.13.226.09.058.203.04.243-.04.04-.076-.017-.169-.13-.226-.113-.035-.203-.018-.243.04m1.83 2.061c-.09.076-.057.25.073.36.13.132.293.15.367.057.073-.075.04-.249-.074-.359-.124-.133-.293-.15-.367-.058m-.644-.85c-.09.057-.09.208 0 .34.09.134.243.192.316.134.09-.075.09-.226 0-.359-.079-.133-.226-.191-.316-.116"/></svg>
